images/right-icon-green.svg

<svg width="18px" height="18px" viewBox="0 0 18 18" version="1.1" xmlns="http://www.w3.org/2000/svg" xmlns:xlink="http://www.w3.org/1999/xlink">
  <circle cx="9" cy="9" r="8px" fill="#FFF"></circle>
  <path fill="#75DCBD" d="M14.3303742,7.04909647 C14.3303742,6.8593641 14.2634099,6.66963173 14.1294811,6.535703 L13.1138549,5.53123752 C12.9799262,5.39730879 12.8013545,5.3191837 12.6116222,5.3191837 C12.4218898,5.3191837 12.2433182,5.39730879 12.1093894,5.53123752 L7.55581258,10.0736536 L5.03348814,7.55132921 C4.89955941,7.41740048 4.72098777,7.33927539 4.5312554,7.33927539 C4.34152303,7.33927539 4.16295139,7.41740048 4.02902266,7.55132921 L3.01339645,8.5557947 C2.87946772,8.68972343 2.81250335,8.8794558 2.81250335,9.06918817 C2.81250335,9.25892054 2.87946772,9.43749218 3.01339645,9.57142091 L7.05357984,13.6116043 C7.18750857,13.745533 7.37724094,13.8236581 7.55581258,13.8236581 C7.74554495,13.8236581 7.93527732,13.745533 8.06920605,13.6116043 L14.1294811,7.55132921 C14.2634099,7.41740048 14.3303742,7.23882884 14.3303742,7.04909647 Z M17.1428776,8.85713434 C17.1428776,13.5892828 13.3035873,17.4285731 8.57143879,17.4285731 C3.83929029,17.4285731 0,13.5892828 0,8.85713434 C0,4.12498584 3.83929029,0.285695553 8.57143879,0.285695553 C13.3035873,0.285695553 17.1428776,4.12498584 17.1428776,8.85713434 Z" id="checkmark-active"></path>
</svg>

<svg width="18" height="18" xmlns="http://www.w3.org/2000/svg"><circle cx="9" cy="9" r="8" fill="#FFF"/><path fill="#75DCBD" d="M14.33 7.05a.73.73 0 0 0-.2-.514L13.113 5.53a.71.71 0 0 0-.502-.212.71.71 0 0 0-.503.212l-4.553 4.543L5.033 7.55a.71.71 0 0 0-.502-.212.71.71 0 0 0-.502.212L3.013 8.556a.726.726 0 0 0-.2.513.7.7 0 0 0 .2.502l4.04 4.04a.73.73 0 0 0 .503.213c.19 0 .38-.078.513-.212l6.06-6.06a.7.7 0 0 0 .201-.503zm2.813 1.807A8.574 8.574 0 0 1 8.57 17.43 8.574 8.574 0 0 1 0 8.857 8.574 8.574 0 0 1 8.571.286a8.574 8.574 0 0 1 8.572 8.571z"/></svg>
